X: 40643
T: Top It Off
R: slip jig
M: 9/8
K: Dmajor
|:d|c2 A A2 c f2 c|def gfe fed|c2 A A2 c f2 c|ded c2 A F2:|
|:f|a2 f f2 e f2 a|g2 _e e2 ^d e2 g|f2 d d2 ^c d2 f|1 edc gfe f2:|2 edc gfe fe||

